X: 30770
T: Orphan, The
R: jig
M: 6/8
K: Eminor
|:~E3 EDB,|GFG AGA|~B3 ABA|GEF EDB,|
~A,3 EDB,|GFG AGA|~B3 ABA|1 GED EGF:|2 GED E2B||
|:~e3 dBA|GAB ~d3|edB ABc|BGF EDB,|
~A,3 EDB,|GFG AGA|~B3 ABA|1 GED E2B:|2 GED EGF||

